src/assets/img/components/socials/f.svg

<svg width="9" height="16" viewBox="0 0 9 16" fill="none" xmlns="http://www.w3.org/2000/svg">
<path d="M5.95546 15.4947V8.60818H8.2855L8.86801 5.73879H5.95546V4.59103C5.95546 3.44327 6.53914 2.86939 7.70299 2.86939H8.86801V0C8.2855 0 7.56319 0 6.53797 0C4.39726 0 3.04292 1.65334 3.04292 4.01715V5.73879H0.712891V8.60818H3.04292V15.4947H5.95546Z" fill="#7481FF"/>
</svg>

<svg width="9" height="16" fill="none" xmlns="http://www.w3.org/2000/svg"><path d="M5.955 15.495V8.608h2.33l.583-2.87H5.955V4.592c0-1.148.584-1.722 1.748-1.722h1.165V0h-2.33c-2.14 0-3.495 1.653-3.495 4.017V5.74H.713v2.87h2.33v6.886h2.912Z" fill="#7481FF"/></svg>
